src/topics/icons/atomic.svg

<svg height="237" preserveAspectRatio="xMidYMid" viewBox="0 0 256 237" width="256" xmlns="http://www.w3.org/2000/svg"><path d="m87.5 24.125-81.28 141.272c-12.841 22.568 72.253 62.534 80.876 47.379l80.652-141.744z" fill="#4985ff"/><path d="m87.714 71.032 80.652 141.744c8.626 15.157 93.718-24.811 80.875-47.379l-80.652-141.744c-8.623-15.157-93.715 24.811-80.875 47.379" fill="#8efaff"/><path d="m46.693 142.179c-25.681 0-25.681 94.758 0 94.758h161.304c25.681 0 25.681-94.758 0-94.758z" fill="#fc436f"/><path d="m128.753 142.179 40.173 70.873c.133.23.165.284.195.338 8.74 14.984 24.365 23.314 40.377 23.314 7.906 0 15.909-2.033 23.213-6.312 14.935-8.75 23.289-24.757 23.289-41.163 0-.229 0-.455-.004-.683-.004-.211-.009-.424-.013-.635-.004-.117-.008-.233-.013-.349-.006-.181-.012-.353-.021-.524-.042-.846-.115-1.69-.199-2.536-2.378-22.477-20.407-40.382-42.729-42.176-.346-.026-3.668-.147-3.693-.147z" fill="#fa2b61"/><path d="m46.672 142.179c-.373.002-3.346.121-3.55.136-22.464 1.805-40.494 19.71-42.871 42.187-.146 1.345-.227 2.694-.246 4.044-.236 16.643 8.141 32.976 23.285 41.846 7.494 4.327 15.4 6.31 23.209 6.312 16.177-.004 31.952-8.5 40.576-23.652l40.249-70.741z" fill="#4275f4"/><path d="m104.806 6.303c-22.241 13.03-29.932 42.153-17.092 64.72l40.307 70.838 40.384-70.905c12-21.088 6.065-47.898-12.911-61.954-1.076-.799-2.186-1.546-3.33-2.238-7.299-4.419-15.685-6.764-24.175-6.764-7.897 0-15.886 2.029-23.183 6.303" fill="#83e7ff"/></svg>

<?xml version="1.0" encoding="UTF-8" standalone="no"?>
<svg width="256px" height="237px" viewBox="0 0 256 237" version="1.1" xmlns="http://www.w3.org/2000/svg" xmlns:xlink="http://www.w3.org/1999/xlink" preserveAspectRatio="xMidYMid">
	<g>
		<path d="M87.5,24.125 L6.22,165.397 C-6.621,187.965 78.473,227.931 87.096,212.776 L167.748,71.032 L87.5,24.125" fill="#4985FF"></path>
		<path d="M87.714,71.032 L168.366,212.776 C176.992,227.933 262.084,187.965 249.241,165.397 L168.589,23.653 C159.966,8.496 74.874,48.464 87.714,71.032" fill="#8EFAFF"></path>
		<path d="M46.693,142.179 C21.012,142.179 21.012,236.937 46.693,236.937 L207.997,236.937 C233.678,236.937 233.678,142.179 207.997,142.179 L46.693,142.179" fill="#FC436F"></path>
		<path d="M128.753,142.179 L168.926,213.052 C169.059,213.282 169.091,213.336 169.121,213.39 C177.861,228.374 193.486,236.704 209.498,236.704 C217.404,236.704 225.407,234.671 232.711,230.392 C247.646,221.642 256,205.635 256,189.229 C256,189 256,188.774 255.996,188.546 C255.992,188.335 255.987,188.122 255.983,187.911 C255.979,187.794 255.975,187.678 255.97,187.562 C255.964,187.381 255.958,187.209 255.949,187.038 C255.907,186.192 255.834,185.348 255.75,184.502 C253.372,162.025 235.343,144.12 213.021,142.326 C212.675,142.3 209.353,142.179 209.328,142.179 L128.753,142.179" fill="#FA2B61"></path>
		<path d="M46.672,142.179 C46.299,142.181 43.326,142.3 43.122,142.315 C20.658,144.12 2.628,162.025 0.251,184.502 C0.105,185.847 0.024,187.196 0.005,188.546 C-0.231,205.189 8.146,221.522 23.29,230.392 C30.784,234.719 38.69,236.702 46.499,236.704 C62.676,236.7 78.451,228.204 87.075,213.052 L127.324,142.311 L46.672,142.179" fill="#4275F4"></path>
		<path d="M104.806,6.303 C82.565,19.333 74.874,48.456 87.714,71.023 L128.021,141.861 L168.405,70.956 C180.405,49.868 174.47,23.058 155.494,9.002 C154.418,8.203 153.308,7.456 152.164,6.764 C144.865,2.345 136.479,0 127.989,0 C120.092,0 112.103,2.029 104.806,6.303" fill="#83E7FF"></path>
	</g>
</svg>
